X:51
T: Die dienende Schwester
N: Q0075F
O: Suedosteuropa, Jugoslawien, Batschka
N: Takt in der letzten Zeile traegt die Anmerkung "frei" .
R: Ballade, Adelige als Dienstmagd, Tod; Kinder - Spiel, Tanz
M: 2/4
L: 1/16
K: F
c2 | c3BA2cc | B3AG3
A | B3AG3F | E3DC2
E2 | F4C4 | c3dc2B2 | A4G4 | F4z2

@@@ Tune index: 1106
